X: 28739
T: My Friend Buddy
R: jig
M: 6/8
K: Fmajor
A|:FGF FGA|cdc cAF|FGF FAc|fgf fga|FGF FGA|
cdc cAF|GAG GAc|({e}d3) d2 f:|agf fcA|FGF FAc|
agf fcf|gag gfg|agf fcA|FGF FAc|GAG GAc|
({e}d3) d2 f|agf fcA|FGF FAc|agf fcf|gag gfg|
afa geg|fed cAF|GAG GAc|({e}d3) d2 f||

